X:1
T:Clairières dans le ciel
T:Les lilas qui avaient fleuri
T:à R. PLAMONDON
T:Clairières dans le ciel
T:Lili Boulanger
T:9. Les lilas qui avaient fleuri 
T:Francis Jammes
T:Creative Commons copyright waiver (CC0 1.0 Universal)
T:Creative Commons copyright waiver (CC0 1.0 Universal)
T:Creative Commons copyright waiver (CC0 1.0 Universal)
T:Creative Commons copyright waiver (CC0 1.0 Universal)
C:Lili Boulanger
Z:Francis Jammes
Z:Creative Commons copyright waiver (CC0 1.0 Universal)
%%score ( 1 2 ) { ( 3 6 8 ) | ( 4 5 7 9 ) }
L:1/8
Q:1/4=96
M:4/4
K:C
V:1 treble nm="Chant\nVoice"
V:2 treble 
V:3 treble nm="Piano"
V:6 treble 
V:8 treble 
V:4 treble 
V:5 treble 
V:7 treble 
V:9 treble 
V:1
"^Sans lenteur" z8 |!p! z E/ E/ B4 A B | G F E2- E C C D | E4 E2 G A | B2 A B G4- | G2 F G E2 E D | %6
w: |Les li- las qui a-|\- vaient fleu- ri _ l'an- née der-|niè- re vont fleu-|rir de nou- veau|_ dans les tris- tes par-|
 E4 E2!p! z G | d4 z e e B |!<(! d2 d d!<)! f2 e f |!<(! ^f2!<)! f f!>(! (=f3!>)! f) | %10
w: ter- res. Dé-|jà le pê- cher|grêle a jon- ché le ciel|bleu de ses ro- ses,|
 z2 !tenuto!^f2 !tenuto!e2 !tenuto!e2 | _e4[Q:1/4=90][Q:1/4=80][Q:1/4=70] z d B d | %12
w: com- me‿un en-|fant la Fê- te-|
!pp![Q:1/4=96]"^a tempo" e8 | z4 z2"^plus intense" z!mf! (B || %14
w: Dieu.|Mon|
[M:3/4][Q:1/4=110]"^Plus animé" e3 d ^f !tenuto!f | g2 ^f2 d2 | e2 d2 ^f2 |!>(! e4!>)! B2) | %18
w: cœur de- vrait mou-|rir au mi-|lieu de ces|cho- ses|
[Q:1/4=114] z ^B ^c c ^d d |[Q:1/4=118] ^B3 ^c ^d d | e e!>(! ^f3!>)! g | %21
w: car c'é- tait au mi-|lieu des ver- gers|blancs et ro- ses|
!p![Q:1/4=92] z A/ A/ A A/ A/ d2- | d3/2 d/ d/ d/!>(! d/ c/ _e2-!>)! | _e z z2[Q:1/4=80] z2 | %24
w: Que j'a- vais es- pé- ré|_ je ne sais quoi de vous|_|
[Q:1/4=90]"^Plus lent"!p! z"^grave" c c3 c | d3 d !tenuto!c d | _e3!<(! c- (3c e!<)! f | %27
w: Mon â- me|rê- ve sour- de-|ment sur _ vos ge-|
!pp! ^f4- f z | z6 |[Q:1/4=84] z"^contenu et ardent" (^G !tenuto!B B!<(! !tenuto!G B!<)! | =d6) | %31
w: \- noux _||Ne la re- pous- sez|point|
 z (^G ^c B ^A G | ^f4)"^cédez"[Q:1/4=72] (_d2 |[Q:1/4=92]"^a tempo" _A3 A _c __B | %34
w: Ne la re- le- vez|pas, de|peur qu'en s'é- loi-|
 _A _G F2) (3(=D F =G | (_A4)!pp!{/A)} (A2 || %36
w: gnant de vous el- le ne|voi- e   com -|
[M:4/4]"^sans rigueur, mais bien mesuré"[Q:1/4=85][Q:1/4=88] _d2- d/ d/ !tenuto!_c/ __B/ !tenuto!_A2 A) (A/ A/ | %37
w: \- bien _ vous ê- tes fai- ble et trou-|
 !tenuto!_e3 _d) z (_f2 _g ||[M:3/4] _a6-)[Q:1/4=80] |[Q:1/4=75] a6- | a2- a z z2 | z6 | %42
w: blé- e dans ses|bras|_|||
[Q:1/4=50] z6 | z6 |] %44
w: ||
V:2
 x8 | x8 | x8 | x8 | x8 | x8 | x8 | x8 | x8 | x8 | x8 | x!>(! x x"^rit." x x4!>)! | x8 | x8 || %14
[M:3/4] x6 | x6 | x6 | x6 | x6 | x2!<(! x x x2 | x!<)! x5 | x6 | x6 | x6 | x6 | x6 | x6 | x6 | x6 | %29
 x6 | x6 | x6 | !stemless!_g2 x4 | x6 | x6 | x6 ||[M:4/4] x8 | x4 x (_c2 __B ||[M:3/4] _A6-) | %39
 A6- | A2- A x x2 | x6 | x6 | x6 |] %44
V:3
!pp!"^Sans lenteur" ([ee']/d'/a/f/ e/f/a/d'/ e'/d'/a/f/ e/f/a/d'/) | %1
 (e'/d'/a/f/ e/f/a/d'/ e'/d'/a/f/ e/f/a/d'/) | (e'/d'/a/f/ e/f/a/d'/ e'/d'/a/f/ e/f/a/d'/) | %3
 ([ee']/c'/a/f/ e/f/a/c'/ e'/c'/a/f/ e/f/a/c'/) | ([ee']/d'/a/f/ e/f/a/d'/ e'/d'/a/f/ e/f/a/d'/) | %5
 (e'/d'/a/f/ e/f/a/d'/ e'/d'/a/f/ e/f/a/d'/) | ([ee']/d'/b/g/ e/g/b/d'/ e'/d'/b/g/ e/g/a/b/) | %7
 ([dd']/!<(!b/a/g/ d/g/a/b/) ([ee']/!<)!!p!b/a/g/ e/g/a/b/) | %8
 ([dd']/b/a/g/ d/g/a/b/) ([ff']/d'/c'/a/ f/a/c'/d'/) | %9
 ([^f^f']/!<(!^d'/^c'/^a/ ^f/!<)!a/c'/d'/) ([=f=f']/=d'/!>(!=c'/_b/ f/b/!>)!c'/d'/) | %10
!<(! ([^f^f']/^d'/^c'/^a/!<)! f/a/c'/d'/) ([ee']/=d'/=c'/g/!>(! e/g/c'/d'/)!>)! | %11
 ([_e_e']/c'/_b/g/!>(! e/g/"^rit."b/c'/) ([dd']/=b/a/g/!>)! =e/g/a/b/) | %12
"^a tempo"!pp! ([ee']/d'/b/g/ e/g/b/d'/ [ee']/d'/b/g/ e/g/b/d'/) | %13
!<(! ([ee']/d'/b/g/ e/g/b/d'/ [ee']/d'/b/g/ e/g/b/!mp!d'/)!<)! || %14
[M:3/4]!mf!"^Plus animé" (e2!<(! d2 ^f2 | g2!<)! ^f2 d2 | =e2 d2 ^f2 | e4 B2) | %18
"^en animant" ([_A=c]2 [=A^c]2 [B^d]2) | ([_A=c]2"_cresc." [=A^c]2 [B^d]2) | %20
"_cresc." [=ce]2 [d^f]2 [_e=g]2 | %21
 z"_doucement expressif""^très a l'aise" ([dd']2 [cc']2!>(! [ff']- | %22
 [ff'] [dd']2 [cc']2 [ff']-!>)! |"_rit." [ff']!>(! [dd']2 [cc']2 [ff'])!>)! | %24
"^m.g."!p!"^Plus lent" z2!pp! ([dd']2 [cc']2) |"^m.g." z2!p! ([=e=e']2 [dd']2) | %26
"^m.g."!<(! z2!mf! ([ff']2 [_e_e']2)!<)! |"^m.g." z2"_expressif" ([^g^e'^g']2 [^f^d'^f']2) | %28
 z ([^G^e^g]2 [^F^d^f]-) [Fdf]2 | %29
!p! z"_expressif"!8va(! ([^a^^c'^a']2!<(! [=a^c'=a']2 [^g^b^g'])!8va)!!<)! | %30
 z!8va(! ([^c'^e'^c'']2!>(! [=c'=e'=c'']2 [b^d'b'])!8va)!!>)! | %31
 z!8va(! ([^a^^c'^a']2!<(! [=a^c'=a']2 [^g^b^g'])!8va)! | %32
 z ([^ge'^g']2 [=g_e'=g']2!<)!"_cédez" [^f=d'^f']- | %33
!pp!"_a tempo" [^fd'^f'] [=f_d'=f']2 [=ec'=e']2 [_e_c'_e']- | %34
 [ec'e'] [=d_b=d']2 [_d__b_d']2 [__B_g-b-] |!>(! [gb] [=G_e=g]2 [_G__e_g]2 [=D_B=d])!>)! || %36
[M:4/4]!pp!"^m.g."[I:staff +1]{^G,A,^C=E[I:staff -1]^GA=c} ([=g=b]2 [^f=a]) z"^m.g."[I:staff +1]{_A,,_E,_G,_A,[I:staff -1]=C=DF=A} ([_G_B]2 [F_A]) z | %37
"^m.g."[I:staff +1]{^G,=A,^C=E[I:staff -1]=A=c^d} ([=g=b]2 [=e=a]) z z4 || %38
[M:3/4]!pp! z ([f_d'f']2 [=ec'=e']2 [_e_c'_e']- | [ec'e'] [=d_b=d']2 [^ca^c']2 [=c_a=c']- | %40
 [cac'] [=B=g=b]2 [_B_g_b]2 [=A=f=a]- | [Afa] [_A_f_a]2 [=G_e=g]2 [_G__e_g]) | %42
 z2"_arpégez lentement,\ntrès effacé" !arpeggio![=e=a=d'=e']3"^m.d." x | x6 |] %44
V:4
!ped! (E/F/A/B/ d/B/A/F/ E/F/A/B/ d/B/A/F/)!ped-up! | %1
!ped! (E/F/A/B/ d/B/A/F/ E/F/A/B/ d/B/A/F/)!ped-up! | %2
!ped! (E/F/A/B/ d/B/A/F/ E/F/A/B/ d/B/A/) z/!ped-up! | %3
[K:bass]!ped! ([F,,C,]/[K:treble]F/A/c/ d/c/A/F/ E/F/A/c/ d/c/A/F/)!ped-up! | %4
[K:bass]!ped! ([D,,A,,]/[K:treble]F/A/B/ d/B/A/F/ E/F/A/B/ d/B/A/F/)!ped-up! | %5
!ped! (E/F/A/B/ d/B/A/F/ E/F/A/B/ d/B/A/F/)!ped-up! | %6
[K:bass]!ped! ([E,,B,,]/[K:treble]G/A/B/ d/B/A/G/ E/G/A/B/ d/B/A/G/)!ped-up! | %7
[K:bass]!ped! ([G,,D,B,]/[K:treble]E/G/A/ B)!ped-up! z[K:bass]!ped! ([E,,B,,G,]/[K:treble]E/G/A/ B)!ped-up! z | %8
[K:bass]!ped! ([G,,D,B,]/[K:treble]E/G/A/ B)!ped-up! z[K:bass]!ped! ([D,,A,,F,]/[K:treble]E/F/A/ B)!ped-up! z | %9
[K:bass]!ped! ([^F,,^C,^G,]/[K:treble]^C/^D/^F/ ^A)!ped-up! z[K:bass]!ped! ([_B,,=F,=D]/[K:treble]E/=F/_c/ d)!ped-up! z | %10
[K:bass]!ped! ([^F,,^C,^A,]/[K:treble]^C/^D/^F/ ^A)!ped-up! z[K:bass]!ped! ([=C,=G,=E]/[K:treble]G/=A/c/ =d)!ped-up! z | %11
[K:bass]!ped! ([E,_B,F]/[K:treble]G/_B/c/ d)!ped-up! z!ped! ([G,D=B]/G/A/B/ d)!ped-up! z!ped! | %12
 (E/G/A/B/!ped-up! d/B/A/G/ E/G/A/B/ d/B/A/G/) | (E/G/A/B/ d/B/A/G/ E/G/A/B/ d/B/A/G/) || %14
[M:3/4][K:bass] [G,CE]2 [^F,A,D]2 [A,D^F]2 | [_B,_EG]2 [A,D^F]2 [^F,A,D]2 | %16
 [G,=C=E]2 [^F,A,D]2 [A,D^F]2 |[K:bass] (3(E,,B,,^F, (3^G,B,^C E) z | %18
 (3(!tenuto!_A,,_E,=C) (3(!tenuto!^F,,^C,=A,) (3(!tenuto!B,,^F,^D) | %19
 (3(!tenuto!_A,,_E,=C) (3(!tenuto!^F,,^C,=A,) (3(!tenuto!B,,^F,^D) | %20
 (3(!tenuto!=A,,=E,=C) (3(!tenuto!D,A,^F) (3(!tenuto!=C,G,D) |[K:treble] [_EGA]6- | [EGA]6- | %23
 [_EGA]6 |[K:bass]"^m.d." [_G,_A,=D_E]6 |"^m.d." [=A,B,=D=E]6 |"^m.d." [_G,_B,_E=F]6 | %27
"^m.d."!ped! [^E,^F,=A,^C]6[K:treble][K:bass] |[K:bass] z[K:treble] !>!^G2- G z2!ped-up! | %29
[K:bass] [^C,^E,B,]6 | [E,^G,D]6 | [^C,^E,B,]6 | [^F,^A,E]6 | [_A,C]6 | [_C_E]6 | [_A,C]6 || %36
[M:4/4]!ped! x4!ped-up!!ped! x4!ped-up! |!ped! x7!ped-up! x7/8{/[_D,,_A,,]} x/8- || %38
[M:3/4] [_A,C]6 | [=B,^D]6 | [_A,=C]4 [_G,_B,]2- | [_G,_B,]2 [_E,=G,]4 | %42
 [_D,,,_D,,]!ped! x[K:treble] !arpeggio![=EF=A=B]3 z!ped-up! |[K:bass] [_D,,,_D,,] z z2 z2 |] %44
V:5
 x8 | x8 | x8 |[K:bass] x/[K:treble] x15/2 |[K:bass] x/[K:treble] x15/2 | x8 | %6
[K:bass] x/[K:treble] x15/2 |[K:bass] x/[K:treble] x7/2[K:bass] x/[K:treble] x7/2 | %8
[K:bass] x/[K:treble] x7/2[K:bass] x/[K:treble] x7/2 | %9
[K:bass] x/[K:treble] x7/2[K:bass] x/[K:treble] x7/2 | %10
[K:bass] x/[K:treble] x7/2[K:bass] x/[K:treble] x7/2 |[K:bass] x7[K:treble] x7/8{/[=E,=B,=E]} x/8 | %12
 x8 | x8 ||[M:3/4][K:bass]{/C,,-} C,,6- | C,,6- | C,,6 |[K:bass] x6 | x6 | x6 | x6 |[K:treble] x6 | %22
 x6 | x6 |[K:bass] [C,,_A,,_E,]6 | [C,,=A,,=D,^F,]6 | [C,,_A,,_E,]6 | %27
 [=B,,,^F,,]6[K:treble][K:bass] |[K:bass] x[K:treble] x5 |[K:bass] (^G,,2 ^A,,2 B,,2) | %30
 (B,,2 ^C,2 D,2) | (^G,,2 ^A,,2 B,,2) | (^B,,2 ^C,2 E,2) | [D,,A,,]6 | (=F,2 _G,2 =G,2) | %35
{/[_D,,_A,,]-} [D,,A,,]6 ||[M:4/4] x8 | x8 ||[M:3/4] [D,,A,,]6 | (^E,2 ^F,2 =G,2) | %40
{/[_D,,_A,,]-} [D,,A,,]4 =C,2 | _D,2 (=A,,2 _B,,2) | x2[K:treble] x4 |[K:bass] x6 |] %44
V:6
 x8 | x8 | x8 | x8 | x8 | x8 | x8 | x8 | x8 | x8 | x8 | x8 | x8 | x8 || %14
[M:3/4] e/c/E/c/ d/A/D/A/ ^f/d/^F/d/ | g/_e/G/e/ ^f/d/^F/d/ d/A/D/A/ | %16
 e/c/E/c/ d/A/D/A/ ^f/d/^F/d/ | e/B/E/B/!>(! ^F/E/F/E/!>)! B/^C/B,/C/ | %18
 =D/_E/D/E/ =E/^F/E/F/ ^G/A/G/A/ | =D/_E/D/E/ =E/^F/E/F/ ^G/A/G/A/ | %20
 ^G/A/G/A/ A/_B/A/B/ =B/c/B/c/ | x6 | x6 | x6 | [_G_A]6 | [^F=A]6 | [_G_B]6 | %27
 [^D^E^FA^c]3/2- x9/2 | x6 | [^D^AB^d]6 | [^F=d^f]6 | [^D^AB^d]6 | [^Ge^g]6 | [=C_G_B]6 | %34
 [__B_d]6 | [_G_B]6 ||[M:4/4] x8 | x8 ||[M:3/4] !tenuto![_G_B]6 | !tenuto![=A^c]6 | %40
 [_G_B]4 !tenuto![_F_A]2- | [_FA]2 !>![_D=F]4- | [DF]4- [DF]-[DF]- | !fermata![_DF]6 |] %44
V:7
 x8 | x8 | x8 |[K:bass] x/[K:treble] x15/2 |[K:bass] x/[K:treble] x15/2 | x8 | %6
[K:bass] x/[K:treble] x15/2 |[K:bass] x/[K:treble] x7/2[K:bass] x/[K:treble] x7/2 | %8
[K:bass] x/[K:treble] x7/2[K:bass] x/[K:treble] x7/2 | %9
[K:bass] x/[K:treble] x7/2[K:bass] x/[K:treble] x7/2 | %10
[K:bass] x/[K:treble] x7/2[K:bass] x/[K:treble] x7/2 |[K:bass] x/[K:treble] x15/2 | x8 | x8 || %14
[M:3/4][K:bass] x6 | x6 | x6 |[K:bass] x6 | x6 | x6 | x6 |[K:treble] x6 | x6 | x6 | %24
[K:bass] !arpeggio!x6 | !arpeggio!x6 | !arpeggio!x6 | !arpeggio!x3/2- x4-[K:treble][K:bass] x/- | %28
[K:bass] x6[K:treble] |[K:bass] x6 | x6 | x6 | x6 | (D,2 _E,2 =E,2) | x6 | (=D,2 _E,2 _G,2) || %36
[M:4/4] x8 | x8 ||[M:3/4] (=D,2 _E,2 =E,2) | x6 | =D,2 _E,2 x2 | x6 | x2[K:treble] x4 | %43
[K:bass] x6 |] %44
V:8
 x8 | x8 | x8 | x8 | x8 | x8 | x8 | x8 | x8 | x8 | x8 | x8 | x8 | x8 ||[M:3/4] x6 | x6 | x6 | x6 | %18
 x6 | x6 | x6 | x6 | x6 | x6 | x6 | x6 | x6 | x3/2 x4- x/- | x6 | x!8va(! x5!8va)! | %30
 x!8va(! x5!8va)! | x!8va(! x5!8va)! | x6 | x6 | x6 | x6 ||[M:4/4] x8 | x8 ||[M:3/4] x6 | x6 | x6 | %41
 x6 | x6 | x6 |] %44
V:9
 x8 | x8 | x8 |[K:bass] x/[K:treble] x15/2 |[K:bass] x/[K:treble] x15/2 | x8 | %6
[K:bass] x/[K:treble] x15/2 |[K:bass] x/[K:treble] x7/2[K:bass] x/[K:treble] x7/2 | %8
[K:bass] x/[K:treble] x7/2[K:bass] x/[K:treble] x7/2 | %9
[K:bass] x/[K:treble] x7/2[K:bass] x/[K:treble] x7/2 | %10
[K:bass] x/[K:treble] x7/2[K:bass] x/[K:treble] x7/2 |[K:bass] x/[K:treble] x15/2 | x8 | x8 || %14
[M:3/4][K:bass] x6 | x6 | x6 |[K:bass] x6 | x6 | x6 | x6 |[K:treble] x6 | x6 | x6 |[K:bass] x6 | %25
 x6 | x6 | x2[K:treble] !>!^g2- g[K:bass] z |[K:bass] x[K:treble] x5 |[K:bass] x6 | x6 | x6 | %32
 x4 x31/16{/[_D,,_A,,]} x/16- | x6 | x6 | x6 ||[M:4/4] x8 | x8 ||[M:3/4] x6 | x6 | x6 | x6 | %42
 x2[K:treble] x4 |[K:bass] x6 |] %44

